!!!OTL: Fengchui zhuyie xiangdingdang
!!!ARE: Asia, China, Fujian Changting
!! II, 590, 2)
!!!SCT: C2011
!!!YEM: Copyright 1995, estate of Helmut Schaffrath.
**kern
*ICvox
*Ivox
*M3/4
*k[]
*C:
{8a
8g
8a
4.dd}
=1
{8dd
16a
16cc
8g
4.a}
=2
{8dd
16a
16cc
8a
4.g}
=3
{8g
16a
16cc
8a
8e
4r}
=4
{8g
8g
8a
4.dd}
=5
{8dd
16a
16cc
8g
4.a}
=6
{8dd
16a
16cc
8a
4.g}
=7
{8g
16a
16cc
8a
8e
4r}
==
!!!AGN: Shange
!!!AMT: simple triple
!!!AIN: vox
!!!EED: Helmut Schaffrath
!!!EEV: 1.0
*-
